X:1
T:Tam Lin
M:4/4
L:1/4
K:F
c/2-B/2| A B c G| A B c G| A d d ^c| d3| e| f3/2 A/2 A3/2 A/2| A3/2 F/2 G A|\
 F3/2 G/2 E3/2 D/2| D3||

